X:1
T:Standing on the Hilltop
T:Standing on the Hilltop
T:Henry Lake Gilmour
T:D. Y. Stephens, 1909
T:Public Domain Courtesy of the Cyber Hymnal™
T:Public Domain Courtesy of the Cyber Hymnal™
C:Henry Lake Gilmour
Z:Public Domain
Z:Courtesy of the Cyber Hymnal™
%%score ( 1 2 ) ( 3 4 )
L:1/8
Q:1/4=90
M:4/4
K:Ab
V:1 treble 
V:2 treble 
V:3 bass 
V:4 bass 
V:1
 EE | [EA]>[EA] [EA][EA] [Ec][CA][DG][EA] | [DB]2 [DF][DG] [CE]2 EE | %3
w: 1.~I have|come thro’ sor- row’s val- ley, and thro’|sin’s dark- est night; I am|
w: 2.~My dear|Sav- ior has gone o- ver to pre-|pare me a place; I am|
w: 3.~If old|Jor- dan’s waves a- round me roll, I|shall have no fear; I am|
w: 4.~I will|lift mine eyes in glad- ness, to be-|hold Heav- en’s land; I am|
w: 5.~O my|bro- ther from the wild- er- ness, look|up and be- hold; I am|
 [Gd]>[Gd] [Ec][DB] [CA][CA] [=DG]<[DA] | [DB]6 EE | [EA]>[EA] [EA][EA] [Ec][CA][DG][EA] | %6
w: stand- ing on the hill- top look- ing|home; And my|soul is full of glo- ry, for I’m|
w: stand- ing on the hill- top look- ing|home; In the|glo- ry of His pre- sence, with my|
w: stand- ing on the hill- top look- ing|home; I will|trust a- lone in Je- sus, who has|
w: stand- ing on the hill- top look- ing|home; And my|faith be- comes tri- umph- ant, for the|
w: stand- ing on the hill- top look- ing|home; Now a|man- sion bright, a great white throne, and|
 [DB][DB][Fc][Fc] [Fd]2 [A=d][Ad] | [Ae]>[Ae] [Ae][Gd] [Ac]!fermata![EA] [EG]<[EB] | [EA]6 || %9
w: liv- ing in the light, I am|stand- ing on the hill- top look- ing|home.|
w: loved ones saved by grace, I am|stand- ing on the hill- top look- ing|home.|
w: prom- ised to be near; I am|stand- ing on the hill- top look- ing|home.|
w: vi- sion is so grand; I am|stand- ing on the hill- top look- ing|home.|
w: streets of shin- ing gold, I am|stand- ing on the hill- top look- ing|home.|
"^Refrain" AA | [Ad]>[Ad] [Ad][Ad] [Ad][Af] [Ae]<[Ad] | [Ac]6 [Ec][Ec] | %12
w: |||
w: |||
w: I am|stand- ing on the hill- top look- ing|home; And I|
w: |||
w: |||
 [A=d]>[Ad] [Ad][Ad] [Ad][AB][Ac][Ad] | ([G-e]2 [GB][Ac] !fermata![Gd]2) [Ec][EB] | %14
w: ||
w: ||
w: catch a glimpse of min- a- ret and|dome; * * * Hear- ing|
w: ||
w: ||
 [EA]>[EA] [Ec][Fd] [_Ge]2 [Gc][Gc] | [FA]>[FB] [FB][Fc] !fermata![Fd]2 [Af][Af] | %16
w: ||
w: ||
w: sweet ce- les- tial strains, Where my|Lord in glo- ry reigns, I am|
w: ||
w: ||
 [Ae]>[Ae] [Ae][Gd] [Ac]!fermata![EA]"^rit." [EG]<[EB] | [EA]6 |] %18
w: ||
w: ||
w: stand- ing on the hill- top look- ing|home.|
w: ||
w: ||
V:2
 EE | x8 | x6 EE | x8 | x6 EE | x8 | x8 | x8 | x6 || AA | x8 | x8 | x8 | x8 | x8 | x8 | x8 | x6 |] %18
V:3
 E,E, | [A,,C]>[A,,C] [A,,C][A,,C] [A,,A,][A,,E,][B,,E,][C,E,] | %2
w: ~ ~|~ ~ ~ ~ ~ ~ ~ ~|
 [D,F,]2 [D,A,][D,A,] [A,,A,]2 [A,,C][A,,C] | %3
w: ~ ~ ~ ~ ~ ~|
 [E,B,]>[E,B,] [E,A,][E,G,] [F,A,][F,A,] [B,,B,]<[B,,B,] | [E,G,]6 [E,G,][E,G,] | %5
w: ~ ~ ~ ~ ~ ~ ~ ~|~ ~ ~|
 [A,,C]>[A,,C] [A,,C][A,,C] [A,,A,][A,,E,][B,,E,][C,E,] | %6
w: ~ ~ ~ ~ ~ ~ ~ ~|
 [D,F,][D,B,][C,=A,][C,A,] [B,,B,]2 [F,=B,][F,B,] | %7
w: ~ ~ ~ ~ ~ ~ ~|
 [E,C]>[E,C] [E,C][E,E] [A,E]!fermata![A,C] [E,B,]<[E,D] | [A,,C]6 || [A,C][A,C] | %10
w: ~ ~ ~ ~ ~ ~ ~ ~|~|~ ~|
 [D,F]>[D,F] [D,F][D,F] [F,D][F,D] [D,F]<[D,F] | E6 [A,C][A,C] | %12
w: ~ ~ ~ ~ ~ ~ ~ ~|~ look- ing|
 [F,B,]>[F,B,] [F,B,][F,F] [B,F][B,=D][B,C]B, | (B,2 DC !fermata![E,B,]2) [E,C][E,D] | %14
w: home, * * * * * * *||
 [A,C]>[A,C] A,A, [A,C]2 [A,E][A,E] | [D,D]>[D,D] [D,B,][C,=A,] !fermata![B,,B,]2 [=D,=B,][D,B,] | %16
w: ||
 [E,C]>[E,C] [E,C][E,E] [A,E]!fermata![A,C] [E,B,]<[E,D] | [A,,C]6 |] %18
w: ||
V:4
 E,E, | x8 | x8 | x8 | x8 | x8 | x8 | x8 | x6 || x2 | x8 | A,2 C,E, A,2 x2 | x7 B, | E,4- x4 | %14
 x2 A,A, x4 | x8 | x8 | x6 |] %18

